X: 38243
T: Squirrel In The Flowers
R: jig
M: 6/8
K: Gmajor
|:"G"BAG "D"FGA|"G"BAB D2D|"D"FEF D2D|"G"GFG D2D|
"G"BAG "D"FGA|"G"BAB D2D|"Em"EFG "D"FGA|"G"BGF G2G:|
|:"G"def g2a|g2a "Em"gfe|"G"def g2(g|"D"g)fe f2f|
[1 "G"def g2a|g2a "Em"gfe|"G"dcB B2B|BAG G2G:|
[2 "Em"gfe "D"fed|"C"ede "G"dBG|"Em"EFG "D"FGA|"G"BGF G3||

